src/16/actions/view-certificate-import.svg

<svg xmlns="http://www.w3.org/2000/svg" width="16" height="16" viewBox="0 0 16 16">
 <defs>
  <style id="current-color-scheme" type="text/css">
   .ColorScheme-Text { color:#565656; } .ColorScheme-Highlight { color:#5294e2; }
  </style>
 </defs>
 <path style="fill:currentColor" class="ColorScheme-Text" d="M 0 1 L 0 14.996094 C 3 14.994994 6 14.99629 9 14.998047 L 9 8.9980469 L 15 8.9980469 L 15 9 L 16 9 L 16 1.0039062 C 10.6667 1.0059062 5.333 0.998 0 1 z M 9 3 L 15 3 L 15 4 L 9 4 L 9 3 z M 3.5 4 C 4.331 4 5 4.6673669 5 5.4980469 L 5 6.9980469 L 6 6.9980469 L 6 9.9980469 L 1 9.9980469 L 1 6.9980469 L 2 6.9980469 L 2 5.4980469 C 2 4.6673169 2.669 4 3.5 4 z M 3.5 4.9980469 C 3.223 4.9980469 3 5.2211369 3 5.4980469 L 3 6.9980469 L 4 6.9980469 L 4 5.4980469 C 4 5.2211369 3.777 4.9980469 3.5 4.9980469 z M 9 5.9980469 L 15 5.9980469 L 15 6.9980469 L 9 6.9980469 L 9 5.9980469 z M 13 10 L 10 12.5 L 13 15 L 13 14 L 16 14 L 16 11 L 13 11 L 13 10 z"/>
</svg>

<svg xmlns="http://www.w3.org/2000/svg" width="16" height="16"><defs><style id="current-color-scheme" type="text/css"></style></defs><path d="M0 1v13.996c3-.001 6 0 9 .002v-6h6V9h1V1.004C10.667 1.006 5.333.998 0 1zm9 2h6v1H9V3zM3.5 4C4.331 4 5 4.667 5 5.498v1.5h1v3H1v-3h1v-1.5C2 4.668 2.669 4 3.5 4zm0 .998c-.277 0-.5.223-.5.5v1.5h1v-1.5c0-.277-.223-.5-.5-.5zm5.5 1h6v1H9v-1zM13 10l-3 2.5 3 2.5v-1h3v-3h-3v-1z" fill="currentColor" color="#565656"/></svg>
